libs/icons/src/svg/draft.svg

<svg width="16" height="16" viewBox="0 0 16 16" fill="none" xmlns="http://www.w3.org/2000/svg">
<path fill-rule="evenodd" clip-rule="evenodd" d="M9.77115 0.666702H2.66667C2.29848 0.666702 2 0.965179 2 1.33337V14.6667C2 15.0349 2.29848 15.3334 2.66667 15.3334H13.3333C13.7015 15.3334 14 15.0349 14 14.6667V5.33337C14 5.17009 13.9401 5.01249 13.8316 4.89046L10.2761 0.89046C10.1646 0.765034 10.0105 0.686899 9.84515 0.670112C9.82062 0.667611 9.79592 0.666465 9.77115 0.666702ZM9.111 2.00004V5.33337C9.111 5.70156 9.40948 6.00003 9.77767 6.00003H12.6667V14H3.33333V2.00004H9.111Z" fill="#202327"/>
</svg>

<svg xmlns="http://www.w3.org/2000/svg" viewBox="0 0 16 16" class="sageicon"><path fill-rule="evenodd" d="M9.771.667H2.667A.667.667 0 0 0 2 1.333v13.334c0 .368.298.666.667.666h10.666a.667.667 0 0 0 .667-.666V5.333c0-.163-.06-.32-.168-.443l-3.556-4a.667.667 0 0 0-.505-.223ZM9.111 2v3.333c0 .369.298.667.667.667h2.889v8H3.333V2h5.778Z"/></svg>
